X: 1
T: Macleod's Farewell
R: reel
M: 4/4
L: 1/8
K: Dmaj
DE|F2BF AFEF| D2 DE FABd|e2 fd efdB| ABde dBAG|
F2BF AFEF| D2 DE FABd|e2fd efdB|1 ABde d2:|2 ABde d3 ||
B|A3 f edfd| A3 f edfd| ABdA BdAB| dBAF E2 DE|
F2BF AFEF| D2DE FABd| e2fd efdB|1 ABde d3:|2 ABde d2||


Tune 518	Setting 13460

